packages/assets/static/images/icons/contrast-eye.svg

<svg width="24" height="24" viewBox="0 0 24 24" xmlns="http://www.w3.org/2000/svg">
<path d="M22.9237 11.7615C22.896 11.6945 22.215 10.1029 20.5941 8.4857C19.0976 6.99262 16.4746 5.17758 12.4829 5.0104C9.31935 4.87797 6.42899 6.01268 4.12461 8.29038C2.40704 9.98872 1.61846 11.7276 1.58567 11.8004C1.46965 12.0595 1.47133 12.3558 1.59155 12.614C1.62434 12.6844 2.40788 14.3488 4.12209 16.0074C6.40966 18.2205 9.28572 19.39 12.4401 19.39C15.5944 19.39 18.3822 18.2023 20.5605 15.9552C22.1906 14.2743 22.8968 12.5867 22.9262 12.5155C23.0254 12.2739 23.0246 12.0032 22.9237 11.7624V11.7615ZM19.0514 14.6343C17.2456 16.4717 15.021 17.4036 12.4401 17.4036C9.85909 17.4036 7.50762 16.4734 5.58744 14.6401C4.59036 13.6875 3.95395 12.72 3.64541 12.1919C3.95311 11.644 4.59457 10.6285 5.60174 9.64524C7.51351 7.77889 9.79855 6.88751 12.3972 6.9951C15.0471 7.10601 17.3027 8.05781 19.1018 9.82484C20.0342 10.7402 20.6025 11.6548 20.8715 12.1481C20.5958 12.6728 20.0073 13.661 19.0514 14.6335V14.6343Z"/>
<path d="M12.34 7.16891C9.52532 7.16891 7.23523 9.42343 7.23523 12.1944C7.23523 14.9654 9.52532 17.2207 12.34 17.2207C15.1547 17.2207 17.4448 14.9662 17.4448 12.1944C17.4448 9.4226 15.1547 7.16891 12.34 7.16891ZM12.4148 15.2327V9.15775C14.0828 9.19748 15.4271 10.5441 15.4271 12.1952C15.4271 13.8464 14.0828 15.1938 12.4148 15.2327Z"/>
</svg>

<svg viewBox="0 0 24 24" xmlns="http://www.w3.org/2000/svg" aria-hidden="true" fill="currentColor" height="24px" width="24px"><path d="M22.924 11.762c-.028-.068-.709-1.66-2.33-3.276-1.496-1.493-4.12-3.308-8.111-3.476-3.164-.132-6.054 1.003-8.358 3.28-1.718 1.699-2.507 3.438-2.54 3.51a.98.98 0 0 0 .007.814c.032.07.816 1.735 2.53 3.393 2.288 2.214 5.164 3.383 8.318 3.383s5.942-1.188 8.12-3.435c1.63-1.68 2.337-3.368 2.366-3.44a.98.98 0 0 0-.002-.753m-3.873 2.872c-1.805 1.838-4.03 2.77-6.61 2.77-2.582 0-4.933-.93-6.854-2.764a11.5 11.5 0 0 1-1.942-2.448c.308-.548.95-1.563 1.957-2.547 1.912-1.866 4.197-2.757 6.795-2.65 2.65.111 4.906 1.063 6.705 2.83.932.915 1.5 1.83 1.77 2.323a10.8 10.8 0 0 1-1.82 2.486"/><path d="M12.34 7.169c-2.815 0-5.105 2.254-5.105 5.025s2.29 5.027 5.105 5.027 5.105-2.255 5.105-5.027c0-2.771-2.29-5.025-5.105-5.025m.075 8.064V9.158c1.668.04 3.012 1.386 3.012 3.037s-1.344 2.999-3.012 3.038"/></svg>
